X:1
T:Title
%%score { ( 1 3 ) | ( 2 4 ) }
L:1/8
Q:1/4=86
M:2/4
K:F
V:1 treble nm="Grand Piano"
V:3 treble 
V:2 bass 
V:4 bass 
V:1
 A2 Ac | c2 [EG]2 | [DF]2 [CB][EB] | A4 | d2 c=B | c2 A2 | G2 [Fc][F=B] | [Ec]4 | %8
w: Geo.~C.~Stebbins * *||||||||
 [DEB]2 [CEA][CEG] | [C_EG]2 [CEF]2 | [B,DF]2 dd | ^c4 | d2 cc | cB [CFA][B,DG] | %14
w: ||||||
 .[A,CF]2 [B,DG][B,EG][Q:1/4=85][Q:1/4=83][Q:1/4=82][Q:1/4=81][Q:1/4=80][Q:1/4=78][Q:1/4=77][Q:1/4=76] | %15
w: |
 [A,F]4[Q:1/4=75][Q:1/4=73][Q:1/4=72][Q:1/4=71][Q:1/4=70][Q:1/4=68][Q:1/4=67][Q:1/4=66] |] %16
w: |
V:2
 [F,CF]2 [F,CF][F,A,F] | [G,B,E]2 [C,B,]2 | [D,A,]2 [E,G,][C,C] | [F,CF]4 | [B,F]2 [A,CF][_A,DF] | %5
 [A,CF]2[K:bass] [F,CF]2 | [E,C]2 [D,G,][^C,G,] | [C,G,]4 | C,2 C,B,, | A,,2 A,,2 | %10
 B,,2[K:treble] [B,F][B,DG] | A2 z2 | [B,DF]2 [A,F][A,C^F] | [DG]2[K:bass] z2 | z G,/A,/ C,C, | %15
 F,4 |] %16
V:3
 x4 | x4 | x4 | x4 | x4 | x4 | x4 | x4 | x4 | x4 | x4 | z2 .G2 | x4 | x4 | x4 | x4 |] %16
V:4
 x4 | x4 | x4 | x4 | x4 | x2[K:bass] x2 | x4 | x4 | x4 | x4 | x2[K:treble] x2 | [A,E]4 | x4 | %13
 G,[K:bass]G,, A,,B,, | C,2 z2 | x4 |] %16

